X: 354
T: Chuancaolin diao
%%abc-version 2.0
%%abcx-abcm2ps-target-version 5.9.1 (29 Sep 2008)
%%abc-creator hum2abc beta
%%abcx-conversion-date 2013/10/02 07:52:30
%%abc-edited-by Helmut Schaffrath
%%humdrum-veritas 3618961363
%%humdrum-veritas-data 2209493997
%%continueall 1
%%barnumbers 0
L: 1/8
M: 2/4
K: C
d> d e c [I:setbarnb 1]| 
d> e d c | 
A d c d | 
F GA2 | 
d> d e c | 
d> e d c | 
A d c d | 
F GA2 | 
d cd2 | 
d> e d c | 
d2G3/ A/ | 
c2A G | 
F A G F/ E/ | 
D4 |]  



